images/4737.svg

<?xml version="1.0" encoding="UTF-8"?>
<svg xmlns="http://www.w3.org/2000/svg" xmlns:xlink="http://www.w3.org/1999/xlink" width="300pt" height="300pt" viewBox="0 0 300 300" version="1.1">
<defs>
<g>
<symbol overflow="visible" id="glyph0-0">
<path style="stroke:none;" d="M 0.75 2.65625 L 0.75 -10.578125 L 8.25 -10.578125 L 8.25 2.65625 Z M 1.59375 1.8125 L 7.40625 1.8125 L 7.40625 -9.734375 L 1.59375 -9.734375 Z M 1.59375 1.8125 "/>
</symbol>
<symbol overflow="visible" id="glyph0-1">
<path style="stroke:none;" d="M 5.90625 -9.9375 C 4.832031 -9.9375 3.976562 -9.535156 3.34375 -8.734375 C 2.71875 -7.929688 2.40625 -6.835938 2.40625 -5.453125 C 2.40625 -4.078125 2.71875 -2.988281 3.34375 -2.1875 C 3.976562 -1.382812 4.832031 -0.984375 5.90625 -0.984375 C 6.976562 -0.984375 7.828125 -1.382812 8.453125 -2.1875 C 9.085938 -2.988281 9.40625 -4.078125 9.40625 -5.453125 C 9.40625 -6.835938 9.085938 -7.929688 8.453125 -8.734375 C 7.828125 -9.535156 6.976562 -9.9375 5.90625 -9.9375 Z M 5.90625 -11.140625 C 7.4375 -11.140625 8.660156 -10.625 9.578125 -9.59375 C 10.503906 -8.5625 10.96875 -7.179688 10.96875 -5.453125 C 10.96875 -3.734375 10.503906 -2.359375 9.578125 -1.328125 C 8.660156 -0.296875 7.4375 0.21875 5.90625 0.21875 C 4.375 0.21875 3.144531 -0.289062 2.21875 -1.3125 C 1.300781 -2.34375 0.84375 -3.722656 0.84375 -5.453125 C 0.84375 -7.179688 1.300781 -8.5625 2.21875 -9.59375 C 3.144531 -10.625 4.375 -11.140625 5.90625 -11.140625 Z M 5.90625 -11.140625 "/>
</symbol>
<symbol overflow="visible" id="glyph0-2">
<path style="stroke:none;" d="M 1.46875 -10.9375 L 3.46875 -10.9375 L 8.3125 -1.78125 L 8.3125 -10.9375 L 9.75 -10.9375 L 9.75 0 L 7.75 0 L 2.90625 -9.140625 L 2.90625 0 L 1.46875 0 Z M 1.46875 -10.9375 "/>
</symbol>
<symbol overflow="visible" id="glyph0-3">
<path style="stroke:none;" d="M 1.46875 -10.9375 L 2.953125 -10.9375 L 2.953125 -6.453125 L 8.328125 -6.453125 L 8.328125 -10.9375 L 9.8125 -10.9375 L 9.8125 0 L 8.328125 0 L 8.328125 -5.203125 L 2.953125 -5.203125 L 2.953125 0 L 1.46875 0 Z M 1.46875 -10.9375 "/>
</symbol>
</g>
</defs>
<g id="surface39361">
<rect x="0" y="0" width="300" height="300" style="fill:rgb(100%,100%,100%);fill-opacity:1;stroke:none;"/>
<path style="fill:none;stroke-width:1.2;stroke-linecap:butt;stroke-linejoin:miter;stroke:rgb(0%,0%,0%);stroke-opacity:1;stroke-miterlimit:10;" d="M 35.25 148.164062 L 66.441406 130.765625 "/>
<path style="fill:none;stroke-width:1.2;stroke-linecap:butt;stroke-linejoin:miter;stroke:rgb(0%,0%,0%);stroke-opacity:1;stroke-miterlimit:10;" d="M 66.441406 130.765625 L 97.105469 149.082031 "/>
<path style="fill:none;stroke-width:1.2;stroke-linecap:butt;stroke-linejoin:miter;stroke:rgb(0%,0%,0%);stroke-opacity:1;stroke-miterlimit:10;" d="M 97.105469 149.082031 L 128.300781 131.683594 "/>
<path style="fill:none;stroke-width:1.2;stroke-linecap:butt;stroke-linejoin:miter;stroke:rgb(0%,0%,0%);stroke-opacity:1;stroke-miterlimit:10;" d="M 128.300781 131.683594 L 128.828125 95.972656 "/>
<path style="fill:none;stroke-width:1.2;stroke-linecap:butt;stroke-linejoin:miter;stroke:rgb(0%,0%,0%);stroke-opacity:1;stroke-miterlimit:10;" d="M 128.300781 131.683594 L 158.964844 150 "/>
<path style="fill:none;stroke-width:1.2;stroke-linecap:butt;stroke-linejoin:miter;stroke:rgb(0%,0%,0%);stroke-opacity:1;stroke-miterlimit:10;" d="M 158.964844 150 L 171.675781 116.621094 "/>
<path style="fill:none;stroke-width:1.2;stroke-linecap:butt;stroke-linejoin:miter;stroke:rgb(0%,0%,0%);stroke-opacity:1;stroke-miterlimit:10;" d="M 158.964844 150 L 135.601562 177.015625 "/>
<path style="fill:none;stroke-width:1.2;stroke-linecap:butt;stroke-linejoin:miter;stroke:rgb(0%,0%,0%);stroke-opacity:1;stroke-miterlimit:10;" d="M 181.511719 177.699219 L 158.964844 150 "/>
<path style="fill:none;stroke-width:1.2;stroke-linecap:butt;stroke-linejoin:miter;stroke:rgb(0%,0%,0%);stroke-opacity:1;stroke-miterlimit:10;" d="M 174.933594 113.96875 L 163.660156 100.121094 "/>
<path style="fill:none;stroke-width:1.2;stroke-linecap:butt;stroke-linejoin:miter;stroke:rgb(100%,0%,0%);stroke-opacity:1;stroke-miterlimit:10;" d="M 163.660156 100.121094 L 152.386719 86.269531 "/>
<path style="fill:none;stroke-width:1.2;stroke-linecap:butt;stroke-linejoin:miter;stroke:rgb(0%,0%,0%);stroke-opacity:1;stroke-miterlimit:10;" d="M 168.417969 119.273438 L 157.140625 105.425781 "/>
<path style="fill:none;stroke-width:1.2;stroke-linecap:butt;stroke-linejoin:miter;stroke:rgb(100%,0%,0%);stroke-opacity:1;stroke-miterlimit:10;" d="M 157.140625 105.425781 L 145.867188 91.578125 "/>
<path style="fill:none;stroke-width:1.2;stroke-linecap:butt;stroke-linejoin:miter;stroke:rgb(0%,0%,0%);stroke-opacity:1;stroke-miterlimit:10;" d="M 171.675781 116.621094 L 189.308594 113.78125 "/>
<path style="fill:none;stroke-width:1.2;stroke-linecap:butt;stroke-linejoin:miter;stroke:rgb(0%,0%,100%);stroke-opacity:1;stroke-miterlimit:10;" d="M 189.308594 113.78125 L 206.9375 110.941406 "/>
<path style=" stroke:none;fill-rule:nonzero;fill:rgb(100%,100%,100%);fill-opacity:1;" d="M 137.125 79.921875 L 149.125 79.921875 L 149.125 97.921875 L 137.125 97.921875 Z M 137.125 79.921875 "/>
<g style="fill:rgb(100%,0%,0%);fill-opacity:1;">
  <use xlink:href="#glyph0-1" x="137.125" y="93.536133"/>
</g>
<path style="fill:none;stroke-width:1.2;stroke-linecap:butt;stroke-linejoin:miter;stroke:rgb(0%,0%,100%);stroke-opacity:1;stroke-miterlimit:10;" d="M 206.9375 110.941406 L 218.210938 124.792969 "/>
<path style="fill:none;stroke-width:1.2;stroke-linecap:butt;stroke-linejoin:miter;stroke:rgb(0%,0%,0%);stroke-opacity:1;stroke-miterlimit:10;" d="M 218.210938 124.792969 L 229.488281 138.640625 "/>
<path style=" stroke:none;fill-rule:nonzero;fill:rgb(100%,100%,100%);fill-opacity:1;" d="M 195.9375 101.941406 L 218.9375 101.941406 L 218.9375 119.941406 L 195.9375 119.941406 Z M 195.9375 101.941406 "/>
<g style="fill:rgb(0%,0%,100%);fill-opacity:1;">
  <use xlink:href="#glyph0-2" x="195.9375" y="115.555664"/>
  <use xlink:href="#glyph0-3" x="206.913086" y="115.555664"/>
</g>
<path style="fill:none;stroke-width:1.2;stroke-linecap:butt;stroke-linejoin:miter;stroke:rgb(0%,0%,0%);stroke-opacity:1;stroke-miterlimit:10;" d="M 230.15625 142.789062 L 247.785156 139.949219 "/>
<path style="fill:none;stroke-width:1.2;stroke-linecap:butt;stroke-linejoin:miter;stroke:rgb(100%,0%,0%);stroke-opacity:1;stroke-miterlimit:10;" d="M 247.785156 139.949219 L 265.417969 137.109375 "/>
<path style="fill:none;stroke-width:1.2;stroke-linecap:butt;stroke-linejoin:miter;stroke:rgb(0%,0%,0%);stroke-opacity:1;stroke-miterlimit:10;" d="M 228.820312 134.492188 L 246.449219 131.652344 "/>
<path style="fill:none;stroke-width:1.2;stroke-linecap:butt;stroke-linejoin:miter;stroke:rgb(100%,0%,0%);stroke-opacity:1;stroke-miterlimit:10;" d="M 246.449219 131.652344 L 264.082031 128.8125 "/>
<path style="fill:none;stroke-width:1.2;stroke-linecap:butt;stroke-linejoin:miter;stroke:rgb(0%,0%,0%);stroke-opacity:1;stroke-miterlimit:10;" d="M 229.488281 138.640625 L 223.132812 155.332031 "/>
<path style="fill:none;stroke-width:1.2;stroke-linecap:butt;stroke-linejoin:miter;stroke:rgb(0%,0%,100%);stroke-opacity:1;stroke-miterlimit:10;" d="M 223.132812 155.332031 L 216.773438 172.019531 "/>
<path style=" stroke:none;fill-rule:nonzero;fill:rgb(100%,100%,100%);fill-opacity:1;" d="M 258.75 123.960938 L 270.75 123.960938 L 270.75 141.960938 L 258.75 141.960938 Z M 258.75 123.960938 "/>
<g style="fill:rgb(100%,0%,0%);fill-opacity:1;">
  <use xlink:href="#glyph0-1" x="258.75" y="137.575195"/>
</g>
<path style="fill:none;stroke-width:1.2;stroke-linecap:butt;stroke-linejoin:miter;stroke:rgb(0%,0%,100%);stroke-opacity:1;stroke-miterlimit:10;" d="M 216.773438 172.019531 L 199.144531 174.859375 "/>
<path style="fill:none;stroke-width:1.2;stroke-linecap:butt;stroke-linejoin:miter;stroke:rgb(0%,0%,0%);stroke-opacity:1;stroke-miterlimit:10;" d="M 199.144531 174.859375 L 181.511719 177.699219 "/>
<path style=" stroke:none;fill-rule:nonzero;fill:rgb(100%,100%,100%);fill-opacity:1;" d="M 205.773438 163.019531 L 228.773438 163.019531 L 228.773438 181.019531 L 205.773438 181.019531 Z M 205.773438 163.019531 "/>
<g style="fill:rgb(0%,0%,100%);fill-opacity:1;">
  <use xlink:href="#glyph0-2" x="205.773438" y="176.633789"/>
  <use xlink:href="#glyph0-3" x="216.749023" y="176.633789"/>
</g>
<path style="fill:none;stroke-width:1.2;stroke-linecap:butt;stroke-linejoin:miter;stroke:rgb(0%,0%,0%);stroke-opacity:1;stroke-miterlimit:10;" d="M 177.585938 176.203125 L 171.230469 192.890625 "/>
<path style="fill:none;stroke-width:1.2;stroke-linecap:butt;stroke-linejoin:miter;stroke:rgb(100%,0%,0%);stroke-opacity:1;stroke-miterlimit:10;" d="M 171.230469 192.890625 L 164.871094 209.582031 "/>
<path style="fill:none;stroke-width:1.2;stroke-linecap:butt;stroke-linejoin:miter;stroke:rgb(0%,0%,0%);stroke-opacity:1;stroke-miterlimit:10;" d="M 185.4375 179.195312 L 179.082031 195.882812 "/>
<path style="fill:none;stroke-width:1.2;stroke-linecap:butt;stroke-linejoin:miter;stroke:rgb(100%,0%,0%);stroke-opacity:1;stroke-miterlimit:10;" d="M 179.082031 195.882812 L 172.726562 212.570312 "/>
<path style=" stroke:none;fill-rule:nonzero;fill:rgb(100%,100%,100%);fill-opacity:1;" d="M 156.800781 202.078125 L 168.800781 202.078125 L 168.800781 220.078125 L 156.800781 220.078125 Z M 156.800781 202.078125 "/>
<g style="fill:rgb(100%,0%,0%);fill-opacity:1;">
  <use xlink:href="#glyph0-1" x="156.800781" y="215.692383"/>
</g>
<path style="fill:none;stroke-width:1.2;stroke-linecap:butt;stroke-linejoin:miter;stroke:rgb(0%,0%,0%);stroke-opacity:1;stroke-miterlimit:10;" d="M 135.601562 177.015625 L 100.523438 170.292969 "/>
</g>
</svg>

<svg xmlns="http://www.w3.org/2000/svg" xmlns:xlink="http://www.w3.org/1999/xlink" width="300pt" height="300pt" viewBox="0 0 300 300"><defs><symbol overflow="visible"><path d="M.75 2.656v-13.234h7.5V2.656zm.844-.844h5.812V-9.733H1.594zm0 0"/></symbol><symbol overflow="visible" id="a"><path d="M5.906-9.938c-1.074 0-1.93.403-2.562 1.204-.625.804-.938 1.898-.938 3.28 0 1.376.313 2.466.938 3.266.633.805 1.488 1.204 2.562 1.204 1.07 0 1.922-.4 2.547-1.204.633-.8.953-1.89.953-3.265 0-1.383-.32-2.477-.953-3.28-.625-.802-1.476-1.204-2.547-1.204zm0-1.203c1.532 0 2.754.515 3.672 1.546.926 1.03 1.39 2.414 1.39 4.14 0 1.72-.464 3.095-1.39 4.126C8.66-.298 7.438.22 5.906.22c-1.53 0-2.76-.51-3.687-1.532C1.3-2.345.843-3.723.843-5.452c0-1.728.457-3.11 1.375-4.142.925-1.03 2.155-1.547 3.686-1.547zm0 0"/></symbol><symbol overflow="visible" id="b"><path d="M1.47-10.938h2L8.31-1.78v-9.158H9.75V0h-2L2.906-9.14V0H1.47zm0 0"/></symbol><symbol overflow="visible" id="c"><path d="M1.47-10.938h1.483v4.485h5.375v-4.484h1.485V0H8.328v-5.203H2.953V0H1.47zm0 0"/></symbol></defs><g><path fill="#fff" d="M0 0h300v300H0z"/><path d="M35.25 148.164l31.19-17.398M66.44 130.766l30.665 18.316M97.105 149.082l31.196-17.398M128.3 131.684l.528-35.71M128.3 131.684L158.966 150M158.965 150l12.71-33.38M158.965 150l-23.363 27.016M181.512 177.7L158.965 150M174.934 113.97l-11.274-13.85" stroke-width="1.2" stroke="#000" stroke-miterlimit="10" fill="none"/><path d="M163.66 100.12l-11.273-13.85" stroke-width="1.2" stroke="#f00" stroke-miterlimit="10" fill="none"/><path d="M168.418 119.273l-11.277-13.847" stroke-width="1.2" stroke="#000" stroke-miterlimit="10" fill="none"/><path d="M157.14 105.426l-11.273-13.848" stroke-width="1.2" stroke="#f00" stroke-miterlimit="10" fill="none"/><path d="M171.676 116.62l17.633-2.84" stroke-width="1.2" stroke="#000" stroke-miterlimit="10" fill="none"/><path d="M189.31 113.78l17.627-2.84" stroke-width="1.2" stroke="#00f" stroke-miterlimit="10" fill="none"/><path d="M137.125 79.922h12v18h-12zm0 0" fill="#fff"/><use xlink:href="#a" x="137.125" y="93.536" fill="#f00"/><path d="M206.938 110.94l11.273 13.853" stroke-width="1.2" stroke="#00f" stroke-miterlimit="10" fill="none"/><path d="M218.21 124.793l11.278 13.848" stroke-width="1.2" stroke="#000" stroke-miterlimit="10" fill="none"/><path d="M195.938 101.94h23v18h-23zm0 0" fill="#fff"/><g fill="#00f"><use xlink:href="#b" x="195.938" y="115.556"/><use xlink:href="#c" x="206.913" y="115.556"/></g><path d="M230.156 142.79l17.63-2.84" stroke-width="1.2" stroke="#000" stroke-miterlimit="10" fill="none"/><path d="M247.785 139.95l17.633-2.84" stroke-width="1.2" stroke="#f00" stroke-miterlimit="10" fill="none"/><path d="M228.82 134.492l17.63-2.84" stroke-width="1.2" stroke="#000" stroke-miterlimit="10" fill="none"/><path d="M246.45 131.652l17.632-2.84" stroke-width="1.2" stroke="#f00" stroke-miterlimit="10" fill="none"/><path d="M229.488 138.64l-6.355 16.692" stroke-width="1.2" stroke="#000" stroke-miterlimit="10" fill="none"/><path d="M223.133 155.332l-6.36 16.688" stroke-width="1.2" stroke="#00f" stroke-miterlimit="10" fill="none"/><path d="M258.75 123.96h12v18h-12zm0 0" fill="#fff"/><use xlink:href="#a" x="258.75" y="137.575" fill="#f00"/><path d="M216.773 172.02l-17.628 2.84" stroke-width="1.2" stroke="#00f" stroke-miterlimit="10" fill="none"/><path d="M199.145 174.86l-17.633 2.84" stroke-width="1.2" stroke="#000" stroke-miterlimit="10" fill="none"/><path d="M205.773 163.02h23v18h-23zm0 0" fill="#fff"/><g fill="#00f"><use xlink:href="#b" x="205.773" y="176.634"/><use xlink:href="#c" x="216.749" y="176.634"/></g><path d="M177.586 176.203l-6.356 16.688" stroke-width="1.2" stroke="#000" stroke-miterlimit="10" fill="none"/><path d="M171.23 192.89l-6.36 16.692" stroke-width="1.2" stroke="#f00" stroke-miterlimit="10" fill="none"/><path d="M185.438 179.195l-6.356 16.688" stroke-width="1.2" stroke="#000" stroke-miterlimit="10" fill="none"/><path d="M179.082 195.883l-6.355 16.687" stroke-width="1.2" stroke="#f00" stroke-miterlimit="10" fill="none"/><path d="M156.8 202.078h12v18h-12zm0 0" fill="#fff"/><use xlink:href="#a" x="156.801" y="215.692" fill="#f00"/><path d="M135.602 177.016l-35.08-6.723" stroke-width="1.2" stroke="#000" stroke-miterlimit="10" fill="none"/></g></svg>
